X:15
T:Cheerful Mary
T:M\`airi Ghreannar
R:Jig
S:Simon Fraser Collection
N:No.204
N:transposed from B_
O:Scottish
M:6/8
L:1/8
K:D
d|A2F A2B|d2d ~d2e|f2a e2c|d2c B2d|
A2F A2c|d2A F2A|F2^E F2^A|B3 B2:|
d|D2d d2c|d2d ~d2e|f2a e2c|d2c B2b|
a2g f2e|d2A F2A|F2 ^E F2 ^A|B3 B2 d|
D2d d2c|d2d ~d2e|f2a e2c|d2c B2b|
d'2c' b2a|f2e d2A|F2 ^E F2^A|B3 B3||
